X:1
T:Title
%%score { 1 | 2 }
L:1/8
M:4/4
K:Eb
V:1 treble nm="Grand Piano"
V:2 bass 
V:1
 z4 z2[Q:1/4=100] B,>B, | E2 [DF]2 G2 E>G | B2 (3=ABc B2 E>E | c2 B2 A2 G>B | %4
[M:9/8] F2 [=A,CF]- [A,CF] [B,DF]2- [B,DF]B,>B, |[M:4/4] G2 [DF]2 E2 e>d | %6
 c2 [_DGB]2 [CFA]2 (3[A,-C-A][A,C][CF] | [B,B]2 [G,CE]2 [A,CA]2[K:bass] [F,A,C]>[A,CF] | %8
[M:7/8] [G,B,E]2 [F,A,B,D]2 [E,G,B,E]3 |[M:1/4][K:treble] [B,DB]>[B,DB] | %10
[M:4/4] .[B,EB]2 .[Ge]2 .[Fd]2 .[DB]>.[DB] |[M:3/4] .[EB]2 .[Ge]2 .d2 |[M:1/4] c>d | %13
[M:4/4] e2 dc B2 AG | FB[F=Ad][EAc] [DB]2 B>A | G2 [DF]2 E2 e>d | %16
 c2 [_DGB]2 [CFA]2 (3[A,-C-A][A,C][CF] | %17
 [B,B]2 [G,CE]2 [A,CA]2[K:bass] [F,A,C]>[Q:1/4=81][A,CF][Q:1/4=98][Q:1/4=97][Q:1/4=95][Q:1/4=94][Q:1/4=92][Q:1/4=91][Q:1/4=89][Q:1/4=88][Q:1/4=86][Q:1/4=84][Q:1/4=83][Q:1/4=80][Q:1/4=78][Q:1/4=77] | %18
[M:3/4] [G,B,E]2 [F,A,B,D]2 [E,G,B,E]2 |] %19
V:2
 z4 z2 B,,>B,, | [E,G,]2 [B,,B,]2 [E,B,E]2 [E,G,]>[E,B,E] | %2
 [E,G,E]2 [E,_G,E]2 [E,=G,E]2 [G,B,]>[G,B,] | [A,E]2 [G,B,E]2 [F,B,D]2 [E,B,E]>[G,B,E] | %4
[M:9/8] [F,B,D]2 F,,- F,, B,,2- B,,B,,>B,, |[M:4/4] [E,B,E]2 [B,,A,]2 [C,G,]2 [G,B,E]>[G,=B,E] | %6
 [A,CE]2 =E,2 F,2 (3A,,-[A,,G][A,,A,] | [G,,G,]2 C,2 F,,2 A,,>A,, |[M:7/8] B,,2 B,,2 E,,3 | %9
[M:1/4] A,>A, |[M:4/4] .G,2 .[D,B,]2 B,2 [A,B,]>[A,B,] | %11
[M:3/4] .[G,B,]2 .[E,B,]2[K:treble] .[B,F]2 |[M:1/4] [A,B,F]>[A,B,F] | %13
[M:4/4] [G,B,E]2 [A,CE]2[K:bass] [G,B,E]2 [F,B,D][E,B,E] | [F,B,D][F,DF]F,F, B,A, [G,B,E]>[F,B,D] | %15
 [E,B,E]2 [B,,A,]2 [C,G,]2 [G,B,E]>[G,=B,E] | [A,CE]2 =E,2 F,2 (3A,,-[A,,G][A,,A,] | %17
 [G,,G,]2 C,2 F,,2 A,,>A,, |[M:3/4] B,,2 B,,2 E,,2 |] %19

